Production/EA4S_WordDrawings/SVG/singles_SVG/hat.svg

<?xml version="1.0" encoding="UTF-8" standalone="no"?><!DOCTYPE svg PUBLIC "-//W3C//DTD SVG 1.1//EN" "http://www.w3.org/Graphics/SVG/1.1/DTD/svg11.dtd"><svg width="100%" height="100%" viewBox="0 0 549 363" version="1.1" xmlns="http://www.w3.org/2000/svg" xmlns:xlink="http://www.w3.org/1999/xlink" xml:space="preserve" style="fill-rule:evenodd;clip-rule:evenodd;stroke-linejoin:round;stroke-miterlimit:1.41421;"><g id="hat"><path d="M255.504,38.683c13.979,15.464 33.967,3.29 46.309,-7.381c6.828,-5.903 13.309,-12.372 21.447,-16.472c8.318,-4.189 18.725,-4.074 27.553,-1.912c19.105,4.68 33.939,21.362 44.834,36.764c11.373,16.078 18.881,33.902 25.352,52.379c4.836,13.805 9.629,27.639 13.615,41.718c4.064,14.347 6.592,28.649 8.359,43.426c3.416,-2.997 6.83,-5.994 10.244,-8.99c-3.51,-0.809 -6.693,-0.897 -10.254,-0.632c-3.564,0.268 -7.807,4.926 -5.148,8.367c2.072,2.684 4.336,4.06 7.543,5.179c5.402,1.887 11.928,-2.491 11.768,-8.461c-0.359,-13.375 -3.975,-26.94 -7.533,-39.762c-3.795,-13.665 -8.422,-27.097 -13.172,-40.453c-6.873,-19.324 -14.215,-37.611 -25.422,-54.899c-10.828,-16.709 -24.99,-32.558 -43.395,-40.952c-17.873,-8.153 -38.928,-6.587 -54.809,5.137c-8.629,6.37 -15.809,14.444 -24.318,20.965c-3.924,3.007 -8.572,5.356 -13.479,6.161c-6.076,0.997 -11.971,-1.021 -17.765,-2.447c-1.032,-0.256 -2.592,1.309 -1.729,2.265Z" style="fill-rule:nonzero;"/><path d="M142.249,211.792c3.77,-14.51 5.166,-29.652 8.387,-44.331c3.227,-14.712 5.846,-29.51 8.596,-44.314c5.037,-27.133 10.48,-54.851 20.037,-80.822c2.604,-7.08 6.128,-14.889 12.475,-19.416c8.357,-5.963 19.238,-6.3 29.072,-7.479c23.832,-2.857 50.699,-4.084 71.158,10.598c2.068,-4.373 4.139,-8.746 6.207,-13.119c-2.256,0.025 -4.297,0.621 -6.469,1.184c-4.977,1.289 -9.008,9.629 -2.49,11.618c2.098,0.64 3.813,0.906 6.016,0.931c5.992,0.068 11.975,-8.979 6.209,-13.118c-20.995,-15.066 -48.725,-14.624 -73.297,-11.936c-11.777,1.289 -23.732,2.596 -34.615,7.523c-9.021,4.086 -15.725,11.518 -20.635,19.921c-5.014,8.584 -7.578,18.602 -10.18,28.112c-3.997,14.602 -7.393,29.33 -10.205,44.206c-2.963,15.672 -5.367,31.445 -7.789,47.209c-2.277,14.808 -6.537,29.517 -7.203,44.542c-0.309,6.939 -0.887,13.104 1.043,19.879c0.587,2.066 3.374,-0.001 3.683,-1.188Z" style="fill-rule:nonzero;"/><path d="M140.333,207.445c0.1,-1.275 0.252,-2.509 0.264,-3.787c0.008,-1.085 0.182,-2.277 -0.285,-3.283c-0.172,-0.369 -0.718,-0.132 -0.828,0.169c-0.807,2.19 -0.234,4.923 -0.047,7.188c0.049,0.61 0.862,0.136 0.896,-0.287Z" style="fill-rule:nonzero;"/><path d="M137.249,199.089c-4.328,15.838 4.102,31.637 16.615,41.1c13.348,10.093 30.824,14.185 47.094,16.41c39.49,5.4 80.934,-0.583 119.326,-9.899c44.92,-10.899 88.457,-29.775 127.58,-54.347c2.711,-1.703 5.135,-4.555 4.953,-7.959c-0.156,-2.937 -2.781,-4.916 -5.656,-4.563c-4.354,0.534 -7.297,2.361 -10.586,5.147c-2.361,2.001 -4.229,8.185 0.549,8.685c2.492,0.261 4.662,0.012 7.104,-0.141c-0.236,-4.174 -0.471,-8.348 -0.705,-12.521c-50.012,30.041 -103.838,51.697 -161.834,59.964c-33.037,4.709 -68.695,7.011 -100.9,-3.487c-9.289,-3.028 -18.244,-7.715 -25.25,-14.606c-7.332,-7.21 -9.824,-16.055 -13.088,-25.458c-0.993,-2.859 -4.728,-0.064 -5.202,1.675Z" style="fill-rule:nonzero;"/><path d="M150.278,144.252c-5.766,-1.176 -10.567,-4.216 -15.42,-7.387c-6.043,-3.948 -12.603,-7.209 -19.344,-9.769c-12.025,-4.568 -25.182,-6.765 -37.979,-4.806c-23.014,3.521 -43.474,20.03 -56.004,39.002c-12.763,19.321 -18.964,42.31 -20.793,65.212c-1.973,24.686 5.172,48.209 19.072,68.553c19.043,27.866 49.071,45.168 80.67,55.072c31.011,9.719 67.166,15.793 99.282,8.285c8.046,-1.881 9.437,-15.369 -0.704,-12.998c-21.977,5.138 -46.145,1.8 -67.931,-2.639c-22.597,-4.603 -44.677,-12.029 -64.193,-24.496c-20.144,-12.869 -36.866,-31.56 -45.864,-53.807c-8.984,-22.215 -7.425,-46.266 -1.221,-68.982c6.555,-24.001 21.34,-46.511 44.904,-56.45c13.569,-5.724 27.893,-4.516 41.748,-0.3c7.49,2.279 14.426,6.124 21.188,9.994c6.883,3.938 12.957,6.111 20.813,3.799c3.163,-0.929 6.778,-7.262 1.776,-8.283Z" style="fill-rule:nonzero;"/><path d="M439.268,144.021c16.305,3.659 29.449,-9.449 40.043,-19.876c2.461,-2.42 4.955,-4.801 7.605,-7.015c1.605,-1.343 1.508,-1.261 2.928,-2.187c1.43,-0.931 3.088,-1.725 3.723,-1.964c5.92,-2.229 12.521,0.944 18.16,5.063c39.139,28.599 19.828,85.383 -5.355,116.156c-15.313,18.71 -32.943,35.405 -53.117,48.798c-21.125,14.023 -44.223,23.626 -68.266,31.369c-28.891,9.305 -57.748,18.818 -87.373,25.552c-14.74,3.352 -29.688,5.759 -44.74,7.174c-10.949,1.03 -24.563,3.914 -35.182,-0.11c-3.695,-1.4 -7.507,0.172 -9.86,3.275c-1.829,2.412 -2.961,7.314 0.61,8.936c11.116,5.047 24.328,3.203 36.1,2.105c14.992,-1.397 29.805,-3.387 44.564,-6.41c30.975,-6.345 61.078,-16.059 91.127,-25.762c25.719,-8.306 50.566,-17.855 73.557,-32.28c22.16,-13.903 41.643,-31.448 58.631,-51.283c27.705,-32.346 50.209,-82.988 24.814,-123.024c-9.23,-14.551 -27.826,-29.06 -45.729,-21.293c-13.77,5.974 -22.16,19.729 -33.723,27.929c-4.566,3.239 -9.953,5.271 -15.496,6.013c-3.728,0.499 -8.828,7.531 -3.021,8.834Z" style="fill-rule:nonzero;"/><path d="M148.166,166.046c2.032,33.412 46.626,41.577 72.708,43.665c32.602,2.61 66.342,-0.2 98.24,-7.387c47.561,-10.714 91.232,-36.01 122.32,-73.862c2.176,-2.65 1.482,-7.909 -2.887,-7.245c-2.895,0.439 -4.738,1.703 -7.309,2.914c-2.736,1.289 -4.184,5.921 -0.57,6.973c1.91,0.557 3.727,0.46 5.695,0.303c-0.961,-2.415 -1.924,-4.83 -2.887,-7.245c-16.715,18.033 -34.209,34.189 -55.773,46.313c-19.68,11.063 -41.619,18.551 -63.697,23.086c-32.609,6.698 -67.401,9.073 -100.486,5.237c-24.291,-2.816 -50.346,-10.553 -60.879,-34.731c-1.051,-2.411 -4.597,-0.014 -4.475,1.979Z" style="fill-rule:nonzero;"/><path d="M305.801,46.706c10.5,-8.84 21.674,-13.358 34.941,-7.775c13.582,5.715 24.258,17.238 33.152,28.619c10.299,13.174 18.752,27.747 25.697,42.938c3.01,6.585 5.672,13.338 7.869,20.238c0.881,2.76 1.656,5.554 2.324,8.372c0.307,1.295 0.551,2.601 0.768,3.914c0.102,0.615 0.184,1.233 0.262,1.852c0.17,1.313 -0.891,3.279 0.543,1.294c1.383,-0.628 2.766,-1.257 4.148,-1.884c0.582,0.611 0.873,0.735 0.875,0.37c-1.301,-2.936 -5.541,-0.418 -5.932,1.911c-0.215,1.288 -0.229,2.472 0.604,3.554c0.953,1.241 2.805,0.79 3.957,0.212c5.76,-2.885 2.088,-13.357 0.861,-18.023c-1.891,-7.194 -4.625,-14.173 -7.582,-20.986c-7.07,-16.295 -16.16,-31.892 -26.928,-46.018c-15.676,-20.561 -47.641,-48.801 -72.486,-24.108c-1.508,1.499 -2.68,3.131 -3.893,4.871c-0.457,0.656 0.264,1.116 0.82,0.649Z" style="fill-rule:nonzero;"/><path d="M262.081,72.884c-16.624,14.649 -21.455,37.585 -24.078,58.729c-2.867,23.121 -2.297,46.591 -2.109,69.841c0.035,4.49 8.014,1.448 6.963,-3.08c-0.32,-1.379 -0.76,-2.007 -1.235,-3.297c-0.894,-2.419 -3.944,-0.036 -4.388,1.414c-0.466,1.523 -0.941,2.521 -1.268,4.104c2.352,-0.476 4.703,-0.951 7.055,-1.426c0.141,-21.81 -0.475,-43.556 1.565,-65.31c1.913,-20.404 6.153,-43.25 18.386,-60.27c0.505,-0.704 -0.296,-1.23 -0.891,-0.705Z" style="fill-rule:nonzero;"/><path d="M191.004,54.27c9.947,2.427 14.591,15.103 17.357,23.698c4.709,14.626 6.372,30.214 7.443,45.474c1.066,15.207 1.07,30.642 -0.617,45.804c-0.623,5.602 -1.506,11.226 -3.107,16.639c-0.484,1.636 -1.135,3.223 -1.953,4.72c0.371,-0.681 -1.293,1.542 -0.342,0.548c-0.66,0.69 -2.23,3.447 -1.338,2.075c-0.773,1.188 -1.107,3.311 0.811,3.627c8.685,1.431 11.092,-15.919 12.006,-21.42c2.417,-14.559 2.648,-29.557 2.131,-44.272c-0.563,-16.015 -2.449,-32.064 -6.646,-47.557c-2.797,-10.323 -7.197,-23.613 -17.096,-29.293c-2.443,-1.401 -5.189,-2.016 -7.988,-1.97c-0.895,0.015 -1.856,1.635 -0.661,1.927Z" style="fill-rule:nonzero;"/></g></svg>

<?xml version="1.0" encoding="UTF-8"?>
<svg width="549px" height="363px" viewBox="0 0 549 363" version="1.1" xmlns="http://www.w3.org/2000/svg" xmlns:xlink="http://www.w3.org/1999/xlink">
    <!-- Generator: Sketch 41 (35326) - http://www.bohemiancoding.com/sketch -->
    <title>hat</title>
    <desc>Created with Sketch.</desc>
    <defs></defs>
    <g id="Page-1" stroke="none" stroke-width="1" fill="none" fill-rule="evenodd">
        <g id="Layer_1" transform="translate(-4869.000000, -3422.000000)" fill="#000000">
            <g id="Layer_1_3_">
                <g id="hat" transform="translate(4869.000000, 3422.000000)">
                    <path d="M255.504,38.683 C269.483,54.147 289.471,41.973 301.813,31.302 C308.641,25.399 315.122,18.93 323.26,14.83 C331.578,10.641 341.985,10.756 350.813,12.918 C369.918,17.598 384.752,34.28 395.647,49.682 C407.02,65.76 414.528,83.584 420.999,102.061 C425.835,115.866 430.628,129.7 434.614,143.779 C438.678,158.126 441.206,172.428 442.973,187.205 C446.389,184.208 449.803,181.211 453.217,178.215 C449.707,177.406 446.524,177.318 442.963,177.583 C439.399,177.851 435.156,182.509 437.815,185.95 C439.887,188.634 442.151,190.01 445.358,191.129 C450.76,193.016 457.286,188.638 457.126,182.668 C456.767,169.293 453.151,155.728 449.593,142.906 C445.798,129.241 441.171,115.809 436.421,102.453 C429.548,83.129 422.206,64.842 410.999,47.554 C400.171,30.845 386.009,14.996 367.604,6.602 C349.731,-1.551 328.676,0.015 312.795,11.739 C304.166,18.109 296.986,26.183 288.477,32.704 C284.553,35.711 279.905,38.06 274.998,38.865 C268.922,39.862 263.027,37.844 257.233,36.418 C256.201,36.162 254.641,37.727 255.504,38.683 L255.504,38.683 Z" id="Shape"></path>
                    <path d="M142.249,211.792 C146.019,197.282 147.415,182.14 150.636,167.461 C153.863,152.749 156.482,137.951 159.232,123.147 C164.269,96.014 169.712,68.296 179.269,42.325 C181.873,35.245 185.397,27.436 191.744,22.909 C200.101,16.946 210.982,16.609 220.816,15.43 C244.648,12.573 271.515,11.346 291.974,26.028 C294.042,21.655 296.113,17.282 298.181,12.909 C295.925,12.934 293.884,13.53 291.712,14.093 C286.735,15.382 282.704,23.722 289.222,25.711 C291.32,26.351 293.035,26.617 295.238,26.642 C301.23,26.71 307.213,17.663 301.447,13.524 C280.452,-1.542 252.722,-1.1 228.15,1.588 C216.373,2.877 204.418,4.184 193.535,9.111 C184.514,13.197 177.81,20.629 172.9,29.032 C167.886,37.616 165.322,47.634 162.72,57.144 C158.723,71.746 155.327,86.474 152.515,101.35 C149.552,117.022 147.148,132.795 144.726,148.559 C142.449,163.367 138.189,178.076 137.523,193.101 C137.214,200.04 136.636,206.205 138.566,212.98 C139.153,215.046 141.94,212.979 142.249,211.792 L142.249,211.792 Z" id="Shape"></path>
                    <path d="M140.333,207.445 C140.433,206.17 140.585,204.936 140.597,203.658 C140.605,202.573 140.779,201.381 140.312,200.375 C140.14,200.006 139.594,200.243 139.484,200.544 C138.677,202.734 139.25,205.467 139.437,207.732 C139.486,208.342 140.299,207.868 140.333,207.445 L140.333,207.445 Z" id="Shape"></path>
                    <path d="M137.249,199.089 C132.921,214.927 141.351,230.726 153.864,240.189 C167.212,250.282 184.688,254.374 200.958,256.599 C240.448,261.999 281.892,256.016 320.284,246.7 C365.204,235.801 408.741,216.925 447.864,192.353 C450.575,190.65 452.999,187.798 452.817,184.394 C452.661,181.457 450.036,179.478 447.161,179.831 C442.807,180.365 439.864,182.192 436.575,184.978 C434.214,186.979 432.346,193.163 437.124,193.663 C439.616,193.924 441.786,193.675 444.228,193.522 C443.992,189.348 443.757,185.174 443.523,181.001 C393.511,211.042 339.685,232.698 281.689,240.965 C248.652,245.674 212.994,247.976 180.789,237.478 C171.5,234.45 162.545,229.763 155.539,222.872 C148.207,215.662 145.715,206.817 142.451,197.414 C141.458,194.555 137.723,197.35 137.249,199.089 L137.249,199.089 Z" id="Shape"></path>
                    <path d="M150.278,144.252 C144.512,143.076 139.711,140.036 134.858,136.865 C128.815,132.917 122.255,129.656 115.514,127.096 C103.489,122.528 90.332,120.331 77.535,122.29 C54.521,125.811 34.061,142.32 21.531,161.292 C8.768,180.613 2.567,203.602 0.738,226.504 C-1.235,251.19 5.91,274.713 19.81,295.057 C38.853,322.923 68.881,340.225 100.48,350.129 C131.491,359.848 167.646,365.922 199.762,358.414 C207.808,356.533 209.199,343.045 199.058,345.416 C177.081,350.554 152.913,347.216 131.127,342.777 C108.53,338.174 86.45,330.748 66.934,318.281 C46.79,305.412 30.068,286.721 21.07,264.474 C12.086,242.259 13.645,218.208 19.849,195.492 C26.404,171.491 41.189,148.981 64.753,139.042 C78.322,133.318 92.646,134.526 106.501,138.742 C113.991,141.021 120.927,144.866 127.689,148.736 C134.572,152.674 140.646,154.847 148.502,152.535 C151.665,151.606 155.28,145.273 150.278,144.252 L150.278,144.252 Z" id="Shape"></path>
                    <path d="M439.268,144.021 C455.573,147.68 468.717,134.572 479.311,124.145 C481.772,121.725 484.266,119.344 486.916,117.13 C488.521,115.787 488.424,115.869 489.844,114.943 C491.274,114.012 492.932,113.218 493.567,112.979 C499.487,110.75 506.088,113.923 511.727,118.042 C550.866,146.641 531.555,203.425 506.372,234.198 C491.059,252.908 473.429,269.603 453.255,282.996 C432.13,297.019 409.032,306.622 384.989,314.365 C356.098,323.67 327.241,333.183 297.616,339.917 C282.876,343.269 267.928,345.676 252.876,347.091 C241.927,348.121 228.313,351.005 217.694,346.981 C213.999,345.581 210.187,347.153 207.834,350.256 C206.005,352.668 204.873,357.57 208.444,359.192 C219.56,364.239 232.772,362.395 244.544,361.297 C259.536,359.9 274.349,357.91 289.108,354.887 C320.083,348.542 350.186,338.828 380.235,329.125 C405.954,320.819 430.801,311.27 453.792,296.845 C475.952,282.942 495.435,265.397 512.423,245.562 C540.128,213.216 562.632,162.574 537.237,122.538 C528.007,107.987 509.411,93.478 491.508,101.245 C477.738,107.219 469.348,120.974 457.785,129.174 C453.219,132.413 447.832,134.445 442.289,135.187 C438.561,135.686 433.461,142.718 439.268,144.021 L439.268,144.021 Z" id="Shape"></path>
                    <path d="M148.166,166.046 C150.198,199.458 194.792,207.623 220.874,209.711 C253.476,212.321 287.216,209.511 319.114,202.324 C366.675,191.61 410.346,166.314 441.434,128.462 C443.61,125.812 442.916,120.553 438.547,121.217 C435.652,121.656 433.809,122.92 431.238,124.131 C428.502,125.42 427.054,130.052 430.668,131.104 C432.578,131.661 434.395,131.564 436.363,131.407 C435.402,128.992 434.439,126.577 433.476,124.162 C416.761,142.195 399.267,158.351 377.703,170.475 C358.023,181.538 336.084,189.026 314.006,193.561 C281.397,200.259 246.605,202.634 213.52,198.798 C189.229,195.982 163.174,188.245 152.641,164.067 C151.59,161.656 148.044,164.053 148.166,166.046 L148.166,166.046 Z" id="Shape"></path>
                    <path d="M305.801,46.706 C316.301,37.866 327.475,33.348 340.742,38.931 C354.324,44.646 365,56.169 373.894,67.55 C384.193,80.724 392.646,95.297 399.591,110.488 C402.601,117.073 405.263,123.826 407.46,130.726 C408.341,133.486 409.116,136.28 409.784,139.098 C410.091,140.393 410.335,141.699 410.552,143.012 C410.654,143.627 410.736,144.245 410.814,144.864 C410.984,146.177 409.923,148.143 411.357,146.158 C412.74,145.53 414.123,144.901 415.505,144.274 C416.087,144.885 416.378,145.009 416.38,144.644 C415.079,141.708 410.839,144.226 410.448,146.555 C410.233,147.843 410.219,149.027 411.052,150.109 C412.005,151.35 413.857,150.899 415.009,150.321 C420.769,147.436 417.097,136.964 415.87,132.298 C413.979,125.104 411.245,118.125 408.288,111.312 C401.218,95.017 392.128,79.42 381.36,65.294 C365.684,44.733 333.719,16.493 308.874,41.186 C307.366,42.685 306.194,44.317 304.981,46.057 C304.524,46.713 305.245,47.173 305.801,46.706 L305.801,46.706 Z" id="Shape"></path>
                    <path d="M262.081,72.884 C245.457,87.533 240.626,110.469 238.003,131.613 C235.136,154.734 235.706,178.204 235.894,201.454 C235.929,205.944 243.908,202.902 242.857,198.374 C242.537,196.995 242.097,196.367 241.622,195.077 C240.728,192.658 237.678,195.041 237.234,196.491 C236.768,198.014 236.293,199.012 235.966,200.595 C238.318,200.119 240.669,199.644 243.021,199.169 C243.162,177.359 242.546,155.613 244.586,133.859 C246.499,113.455 250.739,90.609 262.972,73.589 C263.477,72.885 262.676,72.359 262.081,72.884 L262.081,72.884 Z" id="Shape"></path>
                    <path d="M191.004,54.27 C200.951,56.697 205.595,69.373 208.361,77.968 C213.07,92.594 214.733,108.182 215.804,123.442 C216.87,138.649 216.874,154.084 215.187,169.246 C214.564,174.848 213.681,180.472 212.08,185.885 C211.596,187.521 210.945,189.108 210.127,190.605 C210.498,189.924 208.834,192.147 209.785,191.153 C209.125,191.843 207.555,194.6 208.447,193.228 C207.674,194.416 207.34,196.539 209.258,196.855 C217.943,198.286 220.35,180.936 221.264,175.435 C223.681,160.876 223.912,145.878 223.395,131.163 C222.832,115.148 220.946,99.099 216.749,83.606 C213.952,73.283 209.552,59.993 199.653,54.313 C197.21,52.912 194.464,52.297 191.665,52.343 C190.77,52.358 189.809,53.978 191.004,54.27 L191.004,54.27 Z" id="Shape"></path>
                </g>
            </g>
        </g>
    </g>
</svg>
